Newaita/actions/22/debug-step-into.svg

<svg height="22" viewBox="0 0 22 22" width="22" xmlns="http://www.w3.org/2000/svg"><g fill="#424242"><path d="m3.636719 1.992188c-1.007813 0-1.816407.808593-1.816407 1.816406v14.554687c0 1.007813.808594 1.820313 1.816407 1.820313h14.554687c1.007813 0 1.820313-.8125 1.820313-1.820313v-14.554687c0-1.007813-.8125-1.816406-1.820313-1.816406h-2.273437v1.816406h1.363281c.503906 0 .910156.40625.910156.910156v12.734375c0 .503906-.40625.910156-.910156.910156h-12.734375c-.503906 0-.910156-.40625-.910156-.910156v-12.734375c0-.503906.40625-.910156.910156-.910156h1.367187v-1.816406zm0 0"/><path d="m2.730469 7.449219h16.371093v.910156h-16.371093zm0 0"/><path d="m8.640625 9.707031c-.394531 0-.738281.0625-1.027344.234375-.292969.171875-.496093.453125-.609375.753906-.199218.53125-.199218 1.152344-.199218 1.917969l-.648438.324219c-.160156.082031-.261719.246094-.261719.421875 0 .179687.101563.34375.261719.421875l.648438.324219c0 .769531 0 1.390625.199218 1.921875.113282.300781.316406.582031.609375.753906.289063.171875.632813.234375 1.027344.234375.171875.003906.328125-.085937.414063-.234375.085937-.144531.085937-.328125 0-.476562-.085938-.144532-.242188-.234376-.414063-.230469-.289063 0-.453125-.050781-.546875-.105469s-.148438-.117188-.203125-.273438c-.117187-.308593-.140625-.96875-.140625-1.878906 0-.179687-.101562-.34375-.261719-.421875l-.066406-.035156.066406-.03125c.160157-.078125.261719-.242187.261719-.421875 0-.910156.023438-1.570312.140625-1.882812.054687-.152344.109375-.214844.203125-.269532.09375-.054687.257812-.105468.546875-.105468.171875.003906.328125-.085938.414063-.234376.085937-.144531.085937-.328124 0-.472656-.085938-.148437-.242188-.238281-.414063-.234375zm0 0"/><path d="m13.1875 9.707031c-.167969-.003906-.324219.085938-.410156.234375-.085938.144532-.085938.328125 0 .472656.085937.148438.242187.238282.410156.234376.289062 0 .457031.050781.550781.105468.09375.054688.144531.117188.203125.269532.117188.3125.140625.972656.140625 1.882812 0 .179688.101563.34375.261719.421875l.066406.03125-.066406.035156c-.160156.078125-.261719.242188-.261719.421875 0 .910156-.023437 1.570313-.140625 1.878906-.058594.15625-.109375.21875-.203125.273438s-.261719.105469-.550781.105469c-.167969-.003907-.328125.085937-.414062.230469-.085938.148437-.085938.332031 0 .476562.085937.148438.246093.238281.414062.234375.394531 0 .738281-.0625 1.03125-.234375.289062-.171875.492188-.453125.605469-.753906.199219-.53125.203125-1.152344.199219-1.921875l.652343-.324219c.15625-.078125.257813-.242188.257813-.421875 0-.175781-.101563-.339844-.257813-.421875l-.652343-.324219c.003906-.765625 0-1.386719-.199219-1.917969-.113281-.300781-.316407-.582031-.605469-.753906-.292969-.171875-.636719-.234375-1.03125-.234375zm0 0"/><path d="m7.730469 1.992188h6.367187l-3.183594 4.546874zm0 0"/></g></svg>

<?xml version="1.0" encoding="UTF-8"?>
<svg xmlns="http://www.w3.org/2000/svg" xmlns:xlink="http://www.w3.org/1999/xlink" width="22px" height="22px" viewBox="0 0 22 22" version="1.1">
<g id="surface1">
<path style=" stroke:none;fill-rule:nonzero;fill:rgb(25.882354%,25.882354%,25.882354%);fill-opacity:1;" d="M 3.636719 1.992188 C 2.628906 1.992188 1.820312 2.800781 1.820312 3.808594 L 1.820312 18.363281 C 1.820312 19.371094 2.628906 20.183594 3.636719 20.183594 L 18.191406 20.183594 C 19.199219 20.183594 20.011719 19.371094 20.011719 18.363281 L 20.011719 3.808594 C 20.011719 2.800781 19.199219 1.992188 18.191406 1.992188 L 15.917969 1.992188 L 15.917969 3.808594 L 17.28125 3.808594 C 17.785156 3.808594 18.191406 4.214844 18.191406 4.71875 L 18.191406 17.453125 C 18.191406 17.957031 17.785156 18.363281 17.28125 18.363281 L 4.546875 18.363281 C 4.042969 18.363281 3.636719 17.957031 3.636719 17.453125 L 3.636719 4.71875 C 3.636719 4.214844 4.042969 3.808594 4.546875 3.808594 L 5.914062 3.808594 L 5.914062 1.992188 Z M 3.636719 1.992188 "/>
<path style=" stroke:none;fill-rule:nonzero;fill:rgb(25.882354%,25.882354%,25.882354%);fill-opacity:1;" d="M 2.730469 7.449219 L 19.101562 7.449219 L 19.101562 8.359375 L 2.730469 8.359375 Z M 2.730469 7.449219 "/>
<path style=" stroke:none;fill-rule:nonzero;fill:rgb(25.882354%,25.882354%,25.882354%);fill-opacity:1;" d="M 8.640625 9.707031 C 8.246094 9.707031 7.902344 9.769531 7.613281 9.941406 C 7.320312 10.113281 7.117188 10.394531 7.003906 10.695312 C 6.804688 11.226562 6.804688 11.847656 6.804688 12.613281 L 6.15625 12.9375 C 5.996094 13.019531 5.894531 13.183594 5.894531 13.359375 C 5.894531 13.539062 5.996094 13.703125 6.15625 13.78125 L 6.804688 14.105469 C 6.804688 14.875 6.804688 15.496094 7.003906 16.027344 C 7.117188 16.328125 7.320312 16.609375 7.613281 16.78125 C 7.902344 16.953125 8.246094 17.015625 8.640625 17.015625 C 8.8125 17.019531 8.96875 16.929688 9.054688 16.78125 C 9.140625 16.636719 9.140625 16.453125 9.054688 16.304688 C 8.96875 16.160156 8.8125 16.070312 8.640625 16.074219 C 8.351562 16.074219 8.1875 16.023438 8.09375 15.96875 C 8 15.914062 7.945312 15.851562 7.890625 15.695312 C 7.773438 15.386719 7.75 14.726562 7.75 13.816406 C 7.75 13.636719 7.648438 13.472656 7.488281 13.394531 L 7.421875 13.359375 L 7.488281 13.328125 C 7.648438 13.25 7.75 13.085938 7.75 12.90625 C 7.75 11.996094 7.773438 11.335938 7.890625 11.023438 C 7.945312 10.871094 8 10.808594 8.09375 10.753906 C 8.1875 10.699219 8.351562 10.648438 8.640625 10.648438 C 8.8125 10.652344 8.96875 10.5625 9.054688 10.414062 C 9.140625 10.269531 9.140625 10.085938 9.054688 9.941406 C 8.96875 9.792969 8.8125 9.703125 8.640625 9.707031 Z M 8.640625 9.707031 "/>
<path style=" stroke:none;fill-rule:nonzero;fill:rgb(25.882354%,25.882354%,25.882354%);fill-opacity:1;" d="M 13.1875 9.707031 C 13.019531 9.703125 12.863281 9.792969 12.777344 9.941406 C 12.691406 10.085938 12.691406 10.269531 12.777344 10.414062 C 12.863281 10.5625 13.019531 10.652344 13.1875 10.648438 C 13.476562 10.648438 13.644531 10.699219 13.738281 10.753906 C 13.832031 10.808594 13.882812 10.871094 13.941406 11.023438 C 14.058594 11.335938 14.082031 11.996094 14.082031 12.90625 C 14.082031 13.085938 14.183594 13.25 14.34375 13.328125 L 14.410156 13.359375 L 14.34375 13.394531 C 14.183594 13.472656 14.082031 13.636719 14.082031 13.816406 C 14.082031 14.726562 14.058594 15.386719 13.941406 15.695312 C 13.882812 15.851562 13.832031 15.914062 13.738281 15.96875 C 13.644531 16.023438 13.476562 16.074219 13.1875 16.074219 C 13.019531 16.070312 12.859375 16.160156 12.773438 16.304688 C 12.6875 16.453125 12.6875 16.636719 12.773438 16.78125 C 12.859375 16.929688 13.019531 17.019531 13.1875 17.015625 C 13.582031 17.015625 13.925781 16.953125 14.21875 16.78125 C 14.507812 16.609375 14.710938 16.328125 14.824219 16.027344 C 15.023438 15.496094 15.027344 14.875 15.023438 14.105469 L 15.675781 13.78125 C 15.832031 13.703125 15.933594 13.539062 15.933594 13.359375 C 15.933594 13.183594 15.832031 13.019531 15.675781 12.9375 L 15.023438 12.613281 C 15.027344 11.847656 15.023438 11.226562 14.824219 10.695312 C 14.710938 10.394531 14.507812 10.113281 14.21875 9.941406 C 13.925781 9.769531 13.582031 9.707031 13.1875 9.707031 Z M 13.1875 9.707031 "/>
<path style=" stroke:none;fill-rule:nonzero;fill:rgb(25.882354%,25.882354%,25.882354%);fill-opacity:1;" d="M 7.730469 1.992188 L 14.097656 1.992188 L 10.914062 6.539062 Z M 7.730469 1.992188 "/>
</g>
</svg>
